dist/assets/images/burger-bg.svg

<svg width="44" height="44" viewBox="0 0 44 44" fill="none" xmlns="http://www.w3.org/2000/svg">
<path d="M21.316 0.577427C21.711 0.243952 22.289 0.243951 22.684 0.577426L25.7917 3.20111C26.0542 3.42271 26.4077 3.50341 26.7403 3.41764L30.6787 2.40217C31.1793 2.2731 31.6999 2.52385 31.9111 2.99568L33.5727 6.70794C33.713 7.02147 33.9966 7.24758 34.3335 7.31463L38.3224 8.10851C38.8294 8.20941 39.1897 8.66124 39.1753 9.17798L39.0616 13.2435C39.052 13.5869 39.2094 13.9137 39.4838 14.1202L42.7333 16.5662C43.1463 16.8771 43.2749 17.4405 43.0377 17.8998L41.1713 21.5135C41.0137 21.8187 41.0137 22.1813 41.1713 22.4865L43.0377 26.1002C43.2749 26.5595 43.1463 27.1229 42.7333 27.4338L39.4838 29.8798C39.2094 30.0863 39.052 30.4131 39.0616 30.7565L39.1753 34.822C39.1897 35.3388 38.8294 35.7906 38.3224 35.8915L34.3335 36.6854C33.9966 36.7524 33.713 36.9785 33.5727 37.2921L31.9111 41.0043C31.6999 41.4762 31.1793 41.7269 30.6787 41.5978L26.7403 40.5824C26.4077 40.4966 26.0542 40.5773 25.7917 40.7989L22.684 43.4226C22.289 43.7561 21.711 43.7561 21.316 43.4226L18.2083 40.7989C17.9458 40.5773 17.5923 40.4966 17.2597 40.5824L13.3213 41.5978C12.8207 41.7269 12.3001 41.4762 12.0889 41.0043L10.4273 37.2921C10.287 36.9785 10.0034 36.7524 9.66651 36.6854L5.6776 35.8915C5.1706 35.7906 4.81027 35.3388 4.82472 34.822L4.93837 30.7565C4.94797 30.4131 4.79061 30.0863 4.51617 29.8798L1.26673 27.4338C0.85372 27.1229 0.725122 26.5595 0.962341 26.1002L2.82871 22.4865C2.98635 22.1813 2.98635 21.8187 2.82871 21.5135L0.962342 17.8998C0.725122 17.4405 0.85372 16.8771 1.26673 16.5662L4.51617 14.1202C4.79061 13.9137 4.94797 13.5869 4.93837 13.2435L4.82472 9.17798C4.81027 8.66124 5.1706 8.20941 5.6776 8.10851L9.66651 7.31463C10.0034 7.24758 10.287 7.02147 10.4273 6.70794L12.0889 2.99569C12.3001 2.52385 12.8207 2.2731 13.3213 2.40217L17.2597 3.41764C17.5923 3.50341 17.9458 3.42271 18.2083 3.20111L21.316 0.577427Z" fill="url(#paint0_linear_909_225)"/>
<defs>
<linearGradient id="paint0_linear_909_225" x1="74.6631" y1="44.1953" x2="10.0556" y2="-20.0826" gradientUnits="userSpaceOnUse">
<stop stop-color="#D61607"/>
<stop offset="0.489583" stop-color="#F87717"/>
<stop offset="1" stop-color="#FECE24"/>
</linearGradient>
</defs>
</svg>

<svg width="44" height="44" fill="none" xmlns="http://www.w3.org/2000/svg"><path d="M21.316.577a1.06 1.06 0 0 1 1.368 0l3.108 2.624c.262.222.616.302.948.217l3.939-1.016a1.06 1.06 0 0 1 1.232.594l1.662 3.712c.14.313.424.54.76.607l3.99.794c.506.1.867.552.852 1.069l-.113 4.065c-.01.344.147.67.422.877l3.25 2.446c.412.311.54.875.304 1.334l-1.867 3.614a1.06 1.06 0 0 0 0 .973l1.867 3.613a1.06 1.06 0 0 1-.305 1.334l-3.25 2.446a1.06 1.06 0 0 0-.421.877l.113 4.065a1.06 1.06 0 0 1-.853 1.07l-3.989.793a1.06 1.06 0 0 0-.76.607l-1.662 3.712a1.06 1.06 0 0 1-1.232.594l-3.939-1.016a1.06 1.06 0 0 0-.948.217l-3.108 2.624a1.06 1.06 0 0 1-1.368 0l-3.108-2.624a1.06 1.06 0 0 0-.948-.217l-3.939 1.016a1.06 1.06 0 0 1-1.232-.594l-1.662-3.712a1.06 1.06 0 0 0-.76-.607l-3.99-.794a1.06 1.06 0 0 1-.852-1.069l.113-4.066a1.06 1.06 0 0 0-.422-.876l-3.25-2.446A1.06 1.06 0 0 1 .963 26.1l1.867-3.614a1.06 1.06 0 0 0 0-.973L.962 17.9a1.06 1.06 0 0 1 .305-1.334l3.25-2.446a1.06 1.06 0 0 0 .421-.877l-.113-4.065a1.06 1.06 0 0 1 .853-1.07l3.989-.793a1.06 1.06 0 0 0 .76-.607l1.662-3.712a1.06 1.06 0 0 1 1.232-.594l3.939 1.016c.332.085.686.005.948-.217L21.316.577Z" fill="url(#a)"/><defs><linearGradient id="a" x1="74.663" y1="44.195" x2="10.056" y2="-20.083" gradientUnits="userSpaceOnUse"><stop stop-color="#D61607"/><stop offset=".49" stop-color="#F87717"/><stop offset="1" stop-color="#FECE24"/></linearGradient></defs></svg>
